packages/core/src/svgs/tokens/branded/NALS.svg

<svg width="24" height="24" viewBox="0 0 24 24" fill="none" xmlns="http://www.w3.org/2000/svg">
<path d="M5.41667 4.22223H9.22222V6.44446H5.88889V11.5333L5.33334 11.9222V12.5333L5.88889 12.8945V17.5555H9.22222V19.7778H5.41667L3.66667 17.5555V13.1111H2V10.889H3.66667V6.44446L5.41667 4.22223ZM18.5834 4.22223H14.7778V6.44446H18.1111V11.5333L18.6667 11.9222V12.5333L18.1111 12.8945V17.5555H14.7778V19.7778H18.5834L20.3334 17.5555V13.1111H22V10.889H20.3334V6.44446L18.5834 4.22223ZM11.4444 9.74445C11.7112 9.4944 12.0556 9.22223 12.7333 9.22223C13.9167 9.22223 14.7778 10.3166 14.7778 11.4556V14.7778H13.1112V11.3277C13.0667 11.0056 12.9167 10.3334 12.3667 10.3334C11.9722 10.3334 11.4444 10.889 11.4444 11.2111V14.7778H9.77774V9.22223H11.4444V9.74445Z" fill="#FEFEFE"/>
</svg>

<svg xmlns="http://www.w3.org/2000/svg" width="24" height="24" fill="none" viewBox="0 0 24 24">
    <path fill="#FEFEFE" d="M5.417 4.222h3.805v2.222H5.89v5.09l-.556.388v.611l.556.362v4.66h3.333v2.223H5.417l-1.75-2.222V13.11H2v-2.22h1.667V6.444zm13.166 0h-3.805v2.222h3.333v5.09l.556.388v.611l-.556.362v4.66h-3.333v2.223h3.805l1.75-2.222V13.11H22v-2.22h-1.667V6.444zm-7.139 5.522c.267-.25.612-.522 1.29-.522 1.183 0 2.044 1.095 2.044 2.234v3.322H13.11v-3.45c-.044-.322-.194-.995-.744-.995-.395 0-.923.556-.923.878v3.567H9.778V9.222h1.666z"/>
</svg>
